X:1
T:Praise, Praise His Name
T:Praise, Praise His Name
T:John Robson Sweney
T:Frances Jane (Fanny) Crosby, 1889
T:Public Domain Courtesy of the Cyber Hymnal™
C:John Robson Sweney
Z:Public Domain
Z:Courtesy of the Cyber Hymnal™
%%score ( 1 2 ) ( 3 4 )
L:1/8
M:4/4
K:Bb
V:1 treble 
V:2 treble 
V:3 bass 
V:4 bass 
V:1
 [DF]2 [DB]2 [Fd]3 [Ec] | [DB]2 [EG]2 [DF]2 [DB]2 | [Fc]4 [FB]2 [Fc]2 | [Fd]8 | %4
w: 1.~On the des- ert|mount- ain stray- ing,|Far, far from|home,|
w: 2.~At a throne of|mer- cy kneel- ing,|Sad and op-|pressed,|
w: 3.~Oft I heard that|voice re- peat- ing,|“I am the|Way.|
w: 4.~When from glor- y|un- to glor- y|My flight shall|be,|
 [DF]2 [DB]2 [Fd]3 [Ec] | [DB]2 [EG]2 [DF]2 [DB]2 | [Ec]4 [DB]2 [CA]2 | [DB]6 || %8
w: Heard I there a|sweet voice, say- ing,|“Why wilt Thou|roam?”|
w: Came that voice, to|me re- veal- ing|Hope, life and|rest.|
w: Tar- ry not, the|hours are fleet- ing,|Come, come to-|day.”|
w: Still I’ll sing the|pre- cious stor- y,|Sav- ior, of|Thee.|
"^Refrain" [DB]>[DB] | [Fc]2 [Fc]2 [FB]2 [Fc]2 | [Fd]4 [FB]2 [Fc]>[Fd] | [Fe]2 [Fe]2 [Fd]2 [=EB]2 | %12
w: ||||
w: ||||
w: ||||
w: ||||
 [Fd]4 [Fc]2 [Fd]>[Ec] | [DB]2 [DB]2 (cB) (AG) | [DF]4 [DB]4 | [Ec]4 [DB]2 [CA]2 | [DB]8 |] %17
w: |||||
w: |||||
w: |||||
w: |||||
V:2
 x8 | x8 | x8 | x8 | x8 | x8 | x8 | x6 || x2 | x8 | x8 | x8 | x8 | x4 E2 E2 | x8 | x8 | x8 |] %17
V:3
 [B,,B,]2 [B,,F,]2 [B,,B,]3 [B,,F,] | [B,,F,]2 [B,,B,]2 [B,,B,]2 [B,,F,]2 | %2
w: ~ ~ ~ ~|~ ~ ~ ~|
 [F,A,]4 [D,B,]2 [F,A,]2 | B,8 | [B,,B,]2 [B,,F,]2 [B,,B,]3 [B,,F,] | %5
w: ~ ~ ~|~|~ ~ ~ ~|
 [B,,F,]2 [B,,B,]2 [B,,B,]2 [B,,F,]2 | [E,G,]4 F,2 [F,,F,]2 | [B,,F,]6 || [B,,F,]>[B,,F,] | %9
w: ~ ~ ~ ~|~ ~ ~|~|’Twas my|
 [F,A,]2 [F,A,]2 [D,B,]2 [F,A,]2 | B,4 [B,D]2 [F,A,]>[F,B,] | [A,C]2 [A,C]2 B,2 [G,B,]2 | %12
w: bless- èd Lord that|sought me, Out of|sin to grace He|
 [F,B,]4 [F,A,]2 F,>F, | [B,,F,]2 [B,,F,]2 [E,G,]2 [E,B,]2 | [B,,B,]4 [B,,F,]4 | %15
w: brought me, Oh the|glad, new song He|taught me,|
 [E,G,]4 F,2 [F,,F,]2 | [B,,F,]8 |] %17
w: Praise, praise His|name.|
V:4
 x8 | x8 | x8 | B,8 | x8 | x8 | x4 F,2 x2 | x6 || x2 | x8 | B,4 x4 | x4 B,2 x2 | x6 F,>F, | x8 | %14
 x8 | x4 F,2 x2 | x8 |] %17

